X:1
T:Title
%%score ( 1 2 ) { 3 | ( 4 5 ) }
L:1/8
Q:1/4=115
M:4/4
K:F
V:1 treble nm="Grand Piano, Staff"
V:2 treble 
V:3 bass nm="Choir Pad, Dolgelly, 66.66.88"
V:4 bass 
V:5 bass 
V:1
 D4 [DA]2 [DG]2 | [DF]2 [^CE]2 D4 | [DA]4 [Ec]2 [D=B]2 | [CA]2 [=B,_A]2 [^C=A]4 | %4
w: By~Welsh~hymn~melody * *||||
 [^CA]4 [DA]2 [DG]2 | [^CA]2 [DF]2 [CE]4 | D4 [A,F]2 [DG]2 | [DF]2 [^CE]2 D4 | [DF]4 [Ec]2 [FA]2 | %9
w: |||||
 z4 z2 =B2 | [CA]4 [CA]4 | [Fd]2 [DA]2 [DG]2 [DA]2 | [DF]2 [^CE]2 D4- | D4 z4 |] %14
w: |||||
V:2
 x8 | x8 | x8 | x8 | x8 | x8 | x8 | x8 | x8 | [Fd]2 [FA]2 [Ec]2 ED | x8 | x8 | x8 | x8 |] %14
V:3
 F,4 F,2 B,2 | A,2 G,2 F,4 | F,4 G,2 F,2 | E,2 E,2 E,4 | E,4 F,2 G,2 | E,2 F,2 A,4 | F,4 F,2 B,2 | %7
 .A,4 F,4 | F,4 G,2 A,2 | A,2 F,2 A,2 _A,2 | A,4 A,4 | A,2 F,2 G,2 D,2 | .A,4 F,4- | F,4 z4 |] %14
V:4
 D,4 D,2 G,,2 | A,,2 A,,2 D,4 | D,4 C,2 D,2 | z4 A,,4 | A,,4 D,2 B,,2 | A,,2 D,2 A,,4 | %6
 B,,4 D,2 G,,2 | A,,2 z G, D,4 | D,4 C,2 F,2 | D,2 D,2 C,2 E,2 | z4 F,4 | D,2 D,2 B,,2 F,,2 | %12
 A,,2 z G, D,4- | D,4 z4 |] %14
V:5
 x8 | x8 | x8 | x8 | x8 | x8 | x8 | z2 A,,2 z4 | x8 | x8 | x8 | x8 | z2 A,,2 z4 | x8 |] %14

